X: 16786
T: Harp And The Shamrock, The
R: hornpipe
M: 4/4
K: Gmajor
gf|edAB dBGB|AGEF G2 B/c/d|e2 ed egge|dBAG AABA|
GEED EEDE|GGAG A2 gf|dege dBGB|AGEF G2 gf|
edAB d2 B/A/G|AGEF G2 B/c/d|e2 ed egge|dBAG AABA|
GEED EEDE|GGAG A2 gf|dege dBGB|AGEF G2 B/c/d||
|:e2 ed eggf|eddB d2 BA|GAAG B/c/d e/f/g|dBAG A2 BA|
G~E3 D3 E|GGAG A2 gf|dege dBGB|1 AGEF G2 B/c/d:|2 AGEF G2 gf||

